X: 23923
T: Loch Ross
R: hornpipe
M: 4/4
K: Dmajor
(3ABA FD A,DFA|(3dcd ed Bc (3dcB|(3ABA FD A,DFA|BAGF ef (3gfe|
(3ABA FD ADFA|(3dcd ed Bc (3dcB|)3ABd cB (3ABA (3GFE|(3DEF (3EDCD2z2:|
|:BABc dcde|bagf edcd|cEEF GFGA|ec (3dcBA2FG|
(3ABA FD A,DFA|(3dcd ed Bc (3dcB|(3ABd cB (3ABA (3GFE|(3DEF (3EDCD2z2:|

